Papirus/22x22/apps/plasma-media-center.svg

<svg xmlns="http://www.w3.org/2000/svg" width="22" height="22" version="1">
 <path fill="#4a7db8" d="m21 19v-16c0-0.554-0.446-1-1-1h-18c-0.554 0-1 0.446-1 1v16c0 0.554 0.446 1 1 1h18c0.554 0 1-0.446 1-1z"/>
 <path opacity=".2" d="m7.51 7.5001a0.5 0.5 0 0 0 -0.51 0.5v7.9995a0.5 0.5 0 0 0 0.748 0.43454l6.9995-3.9995a0.5 0.5 0 0 0 0 -0.8691l-7-4.0014a0.5 0.5 0 0 0 -0.23798 -0.065495z"/>
 <path fill="#7acbb2" d="m7.51 7a0.5 0.5 0 0 0 -0.51 0.5v7.9995a0.5 0.5 0 0 0 0.748 0.43454l6.9995-3.9995a0.5 0.5 0 0 0 0 -0.8691l-6.9995-4a0.5 0.5 0 0 0 -0.2385 -0.067z"/>
 <path opacity=".2" d="m1 19v0.5c0 0.554 0.446 1 1 1h18c0.554 0 1-0.446 1-1v-0.5c0 0.554-0.446 1-1 1h-18c-0.554 0-1-0.446-1-1z"/>
 <path fill="#fff" opacity=".2" d="m2 2c-0.554 0-1 0.446-1 1v0.5c0-0.554 0.446-1 1-1h18c0.554 0 1 0.446 1 1v-0.5c0-0.554-0.446-1-1-1h-18z"/>
</svg>

<svg xmlns="http://www.w3.org/2000/svg" width="22" height="22" version="1">
 <path style="fill:#316fb5" d="M 21,19 21,3 C 21,2.446 20.554,2 20,2 L 2,2 C 1.446,2 1,2.446 1,3 l 0,16 c 0,0.554 0.446,1 1,1 l 18,0 c 0.554,0 1,-0.446 1,-1 z"/>
 <path style="opacity:0.2" d="M 7.51,7.5001 A 0.5,0.5 0 0 0 7,8.0001 l 0,7.9995 a 0.5,0.5 0 0 0 0.748,0.43454 l 6.9995,-3.9995 a 0.5,0.5 0 0 0 0,-0.8691 l -7,-4.0014 A 0.5,0.5 0 0 0 7.50952,7.498645 Z"/>
 <path style="fill:#60e5bd" d="M 7.51,7 A 0.5,0.5 0 0 0 7,7.5 l 0,7.9995 a 0.5,0.5 0 0 0 0.748,0.43454 l 6.9995,-3.9995 a 0.5,0.5 0 0 0 0,-0.8691 l -6.9995,-4 a 0.5,0.5 0 0 0 -0.2385,-0.067 z"/>
 <path style="opacity:0.2" d="m 1,19 0,0.5 c 0,0.554 0.446,1 1,1 l 18,0 c 0.554,0 1,-0.446 1,-1 L 21,19 c 0,0.554 -0.446,1 -1,1 L 2,20 C 1.446,20 1,19.554 1,19 Z"/>
 <path style="opacity:0.1;fill:#ffffff" d="M 2,2 C 1.446,2 1,2.446 1,3 l 0,0.5 c 0,-0.554 0.446,-1 1,-1 l 18,0 c 0.554,0 1,0.446 1,1 L 21,3 C 21,2.446 20.554,2 20,2 L 2,2 Z"/>
</svg>
